static/images/service/banner/1600.svg

<svg xmlns="http://www.w3.org/2000/svg" xmlns:xlink="http://www.w3.org/1999/xlink" width="1440" height="720" viewBox="0 0 1440 720">
    <defs>
        <linearGradient id="b" x1="100%" x2="0%" y1="37.5%" y2="62.5%">
            <stop offset="0%" stop-color="#703BEE"/>
            <stop offset="100%" stop-color="#1156CC"/>
        </linearGradient>
        <path id="a" d="M0 0h1440v720H0z"/>
    </defs>
    <g fill="none" fill-rule="evenodd">
        <mask id="c" fill="#fff">
            <use xlink:href="#a"/>
        </mask>
        <use fill="url(#b)" style="mix-blend-mode:hard-light" xlink:href="#a"/>
        <path fill="#006CFF" fill-opacity=".3" d="M447 397v288h206v-82.287H529.401V479.287H653V397z" mask="url(#c)" style="mix-blend-mode:multiply"/>
        <path fill="#006CFF" fill-opacity=".4" d="M38.002 153.498c-24.025 0-43.505-19.475-43.505-43.5 0-24.024 19.48-43.496 43.505-43.496 24.021 0 43.5 19.472 43.5 43.496 0 24.025-19.479 43.5-43.5 43.5m0-188.498C-42.082-35-107 29.92-107 109.998-107 190.08-42.082 255 38.002 255 118.082 255 183 190.08 183 109.998 183 29.92 118.082-35 38.002-35M848.002 368.498c-24.025 0-43.505-19.475-43.505-43.5 0-24.024 19.48-43.496 43.505-43.496 24.021 0 43.5 19.472 43.5 43.496 0 24.025-19.479 43.5-43.5 43.5m0-188.498C767.918 180 703 244.92 703 324.998 703 405.08 767.918 470 848.002 470 928.082 470 993 405.08 993 324.998 993 244.92 928.082 180 848.002 180M1372.817 72v52.5h-52.634V72H1250v245h193V72h-70.183zM1320 247h52v-52h-52v52z" mask="url(#c)" style="mix-blend-mode:multiply"/>
        <path fill="#006CFF" fill-opacity=".4" d="M1283 562v160h80.001v-80.001H1443V562z" mask="url(#c)" style="mix-blend-mode:multiply" transform="rotate(-180 1363 642)"/>
    </g>
</svg>

<svg width="1440" height="720" viewBox="0 0 1440 720" fill="none" xmlns="http://www.w3.org/2000/svg">
<mask id="mask0" mask-type="alpha" maskUnits="userSpaceOnUse" x="0" y="0" width="1440" height="720">
<path d="M0 0H1440V720H0V0Z" fill="white"/>
</mask>
<g mask="url(#mask0)">
<path d="M0 0H1440V720H0V0Z" fill="url(#paint0_linear)" style="mix-blend-mode:hard-light"/>
<g style="mix-blend-mode:multiply">
<path fill-rule="evenodd" clip-rule="evenodd" d="M447 397V685H653V602.713H529.401V479.287H653V397H447Z" fill="#006CFF" fill-opacity="0.3"/>
</g>
<g style="mix-blend-mode:multiply">
<path fill-rule="evenodd" clip-rule="evenodd" d="M38.002 153.498C13.977 153.498 -5.503 134.023 -5.503 109.998C-5.503 85.974 13.977 66.502 38.002 66.502C62.023 66.502 81.502 85.974 81.502 109.998C81.502 134.023 62.023 153.498 38.002 153.498V153.498ZM38.002 -35C-42.082 -35 -107 29.92 -107 109.998C-107 190.08 -42.082 255 38.002 255C118.082 255 183 190.08 183 109.998C183 29.92 118.082 -35 38.002 -35V-35ZM848.002 368.498C823.977 368.498 804.497 349.023 804.497 324.998C804.497 300.974 823.977 281.502 848.002 281.502C872.023 281.502 891.502 300.974 891.502 324.998C891.502 349.023 872.023 368.498 848.002 368.498ZM848.002 180C767.918 180 703 244.92 703 324.998C703 405.08 767.918 470 848.002 470C928.082 470 993 405.08 993 324.998C993 244.92 928.082 180 848.002 180ZM1372.82 72V124.5H1320.18V72H1250V317H1443V72H1372.82ZM1320 247H1372V195H1320V247Z" fill="#006CFF" fill-opacity="0.4"/>
</g>
<g style="mix-blend-mode:multiply">
<path fill-rule="evenodd" clip-rule="evenodd" d="M1443 722V562H1363V642.001H1283V722H1443Z" fill="#006CFF" fill-opacity="0.4"/>
</g>
</g>
<defs>
<linearGradient id="paint0_linear" x1="1440" y1="270" x2="216" y2="882" gradientUnits="userSpaceOnUse">
<stop stop-color="#703BEE"/>
<stop offset="1" stop-color="#1156CC"/>
</linearGradient>
</defs>
</svg>
